file/animal-planet.svg

<svg clip-rule="evenodd" fill-rule="evenodd" stroke-linejoin="round" stroke-miterlimit="1.41421" viewBox="0 0 560 400" xmlns="http://www.w3.org/2000/svg"><g fill-rule="nonzero" transform="matrix(1.4892 0 0 1.4892 -51.3477 -40.134)"><path d="m282.7 96.9-3.4 5.9c18 3.5 28.5 11.2 28.5 20.2 0 6-4.5 11.7-12.2 11.7-11.8 0-20.4-18.5-20.4-18.5-2.5-.1-6.9-.2-6.9-.2s-12.6-16.2-31.8-21.9v26.3c1.7 1.4 3.9 3.5 5.9 6-8.7-5.2-17.7-9.1-33.6-9.1-17.3 0-38.4 7-50.2 26.1l1.2 2.2c5.4-6 13.6-9.7 13.9-9.8-11.5 10.1-18.1 26.8-21.4 37.7l10.1 10.1c11.3-12.7 30.2-24.8 55.8-24.8 19.2 0 38.7 8 52.2 21.9l10.9-10.9c-9.2-15.7-20.2-26.7-20.6-27.1.5.2 10.3 5.9 27.5 5.9 16 0 30.3-8.9 30.3-22.2.1-16-13.5-26.1-35.8-29.5z" fill="#0073ff"/><path d="m122.1 205.2v2.2s-1.8-2.8-5.8-2.8c-4.7 0-8.3 3.8-8.3 8.9 0 5 3.7 8.9 8.4 8.9 2.2 0 4.7-1 5.6-2.5h.1v1.9h5.2v-16.6zm-4.2 12.7c-2.8 0-4.5-2.3-4.5-4.5 0-2.4 2-4.5 4.5-4.5s4.4 2 4.4 4.5c.1 2.2-1.6 4.5-4.4 4.5zm90.1-12.7v2.2s-1.8-2.8-5.8-2.8c-4.7 0-8.3 3.8-8.3 8.9 0 5 3.7 8.9 8.4 8.9 2.2 0 4.7-1 5.6-2.5h.1v1.9h5.2v-16.6zm-4.2 12.7c-2.8 0-4.5-2.3-4.5-4.5 0-2.4 2-4.5 4.5-4.5s4.4 2 4.4 4.5c.1 2.2-1.6 4.5-4.4 4.5zm-54.8-6.4v10.3h-5.4v-8.5c0-2.7-.6-4.6-3.1-4.6s-3.8 2-3.8 5.6v7.5h-5.2v-16.6h5.2v2.2h.1c1.3-1.9 3.4-2.8 5.9-2.8 4.2 0 6.3 2.3 6.3 6.9zm42.6 0v10.3h-5.4v-8.5c0-2.7-.6-4.6-3.1-4.6s-3.8 2-3.8 5.6v7.5h-5.2v-8.5c0-2.7-.6-4.6-3.1-4.6s-3.8 2-3.8 5.6v7.5h-5.2v-16.6h5.2v2.2h.1c1.3-1.9 3.4-2.8 5.9-2.8 2.8 0 4.5 1 5.4 3.1 1.3-1.9 4.2-3.1 6.6-3.1 4.4 0 6.4 2.3 6.4 6.9zm-33.3-12.5c0 1.6-1.3 3-3 3s-3-1.3-3-3c0-1.6 1.3-3 3-3s3 1.4 3 3zm-.3 6.2v16.6h-5.2v-16.6zm64.7-6.6v23.2h-5.2v-23.2zm53.8 6.6v2.2s-1.8-2.8-5.8-2.8c-4.7 0-8.3 3.8-8.3 8.9 0 5 3.7 8.9 8.4 8.9 2.2 0 4.7-1 5.6-2.5h.1v1.9h5.2v-16.6zm-4.2 12.7c-2.8 0-4.5-2.3-4.5-4.5 0-2.4 2-4.5 4.5-4.5s4.4 2 4.4 4.5c.1 2.2-1.6 4.5-4.4 4.5zm-39.6-12.7v23.2h5.2v-8.5h.1c.9 1.5 3.4 2.5 5.6 2.5 4.7 0 8.4-3.9 8.4-8.9 0-5.1-3.6-8.9-8.3-8.9-4 0-5.8 2.8-5.8 2.8v-2.2zm4.9 8.3c0-2.4 2-4.5 4.4-4.5 2.5 0 4.5 2 4.5 4.5 0 2.1-1.7 4.5-4.5 4.5-2.8-.1-4.4-2.4-4.4-4.5zm65.8-2v10.3h-5.4v-8.5c0-2.7-.6-4.6-3.1-4.6s-3.8 2-3.8 5.6v7.5h-5.1v-16.6h5.2v2.2h.1c1.3-1.9 3.4-2.8 5.9-2.8 4.1 0 6.2 2.3 6.2 6.9zm33.1-2.2v-4.1h-4.1v-3.9h-5.2v3.9h-2.6v4.1h2.6v6.5c0 4.4 1.8 6.6 6.2 6.6 1 0 2.1-.1 3.6-.4l-.4-4c-.8.2-1.9.3-2.6.2-1-.2-1.6-.8-1.6-2.3v-6.5h4.1zm-76.7-10.7v23.2h-5.2v-23.2zm63.6 16.3c.5-5.5-2.2-10.3-9-10.3-5.9 0-8.8 4.3-8.8 8.9 0 5.1 3.7 8.8 9.9 8.8 2.5 0 4.3-.7 6-1.3l-1-3.8c-1.4.5-2.5 1-4.8 1-2.6 0-4.2-1.5-4.7-3.5h12.4zm-8.5-6.5c2.1 0 3.6 1.6 3.8 3.4h-7.7c.4-2.3 2-3.4 3.9-3.4z"/></g></svg>

<?xml version="1.0" encoding="UTF-8" standalone="no"?>
<!DOCTYPE svg PUBLIC "-//W3C//DTD SVG 1.1//EN" "http://www.w3.org/Graphics/SVG/1.1/DTD/svg11.dtd">
<svg width="100%" height="100%" viewBox="0 0 560 400" version="1.1" xmlns="http://www.w3.org/2000/svg" xmlns:xlink="http://www.w3.org/1999/xlink" xml:space="preserve" xmlns:serif="http://www.serif.com/" style="fill-rule:evenodd;clip-rule:evenodd;stroke-linejoin:round;stroke-miterlimit:1.41421;">
    <g transform="matrix(1.4892,0,0,1.4892,-51.3477,-40.134)">
        <path d="M282.7,96.9L279.3,102.8C297.3,106.3 307.8,114 307.8,123C307.8,129 303.3,134.7 295.6,134.7C283.8,134.7 275.2,116.2 275.2,116.2C272.7,116.1 268.3,116 268.3,116C268.3,116 255.7,99.8 236.5,94.1L236.5,120.4C238.2,121.8 240.4,123.9 242.4,126.4C233.7,121.2 224.7,117.3 208.8,117.3C191.5,117.3 170.4,124.3 158.6,143.4L159.8,145.6C165.2,139.6 173.4,135.9 173.7,135.8C162.2,145.9 155.6,162.6 152.3,173.5L162.4,183.6C173.7,170.9 192.6,158.8 218.2,158.8C237.4,158.8 256.9,166.8 270.4,180.7L281.3,169.8C272.1,154.1 261.1,143.1 260.7,142.7C261.2,142.9 271,148.6 288.2,148.6C304.2,148.6 318.5,139.7 318.5,126.4C318.6,110.4 305,100.3 282.7,96.9Z" style="fill:rgb(0,115,255);fill-rule:nonzero;"/>
        <path d="M122.1,205.2L122.1,207.4C122.1,207.4 120.3,204.6 116.3,204.6C111.6,204.6 108,208.4 108,213.5C108,218.5 111.7,222.4 116.4,222.4C118.6,222.4 121.1,221.4 122,219.9L122.1,219.9L122.1,221.8L127.3,221.8L127.3,205.2L122.1,205.2ZM117.9,217.9C115.1,217.9 113.4,215.6 113.4,213.4C113.4,211 115.4,208.9 117.9,208.9C120.4,208.9 122.3,210.9 122.3,213.4C122.4,215.6 120.7,217.9 117.9,217.9ZM208,205.2L208,207.4C208,207.4 206.2,204.6 202.2,204.6C197.5,204.6 193.9,208.4 193.9,213.5C193.9,218.5 197.6,222.4 202.3,222.4C204.5,222.4 207,221.4 207.9,219.9L208,219.9L208,221.8L213.2,221.8L213.2,205.2L208,205.2ZM203.8,217.9C201,217.9 199.3,215.6 199.3,213.4C199.3,211 201.3,208.9 203.8,208.9C206.3,208.9 208.2,210.9 208.2,213.4C208.3,215.6 206.6,217.9 203.8,217.9ZM149,211.5L149,221.8L143.6,221.8L143.6,213.3C143.6,210.6 143,208.7 140.5,208.7C138,208.7 136.7,210.7 136.7,214.3L136.7,221.8L131.5,221.8L131.5,205.2L136.7,205.2L136.7,207.4L136.8,207.4C138.1,205.5 140.2,204.6 142.7,204.6C146.9,204.6 149,206.9 149,211.5ZM191.6,211.5L191.6,221.8L186.2,221.8L186.2,213.3C186.2,210.6 185.6,208.7 183.1,208.7C180.6,208.7 179.3,210.7 179.3,214.3L179.3,221.8L174.1,221.8L174.1,213.3C174.1,210.6 173.5,208.7 171,208.7C168.5,208.7 167.2,210.7 167.2,214.3L167.2,221.8L162,221.8L162,205.2L167.2,205.2L167.2,207.4L167.3,207.4C168.6,205.5 170.7,204.6 173.2,204.6C176,204.6 177.7,205.6 178.6,207.7C179.9,205.8 182.8,204.6 185.2,204.6C189.6,204.6 191.6,206.9 191.6,211.5ZM158.3,199C158.3,200.6 157,202 155.3,202C153.6,202 152.3,200.7 152.3,199C152.3,197.4 153.6,196 155.3,196C157,196 158.3,197.4 158.3,199ZM158,205.2L158,221.8L152.8,221.8L152.8,205.2L158,205.2ZM222.7,198.6L222.7,221.8L217.5,221.8L217.5,198.6L222.7,198.6ZM276.5,205.2L276.5,207.4C276.5,207.4 274.7,204.6 270.7,204.6C266,204.6 262.4,208.4 262.4,213.5C262.4,218.5 266.1,222.4 270.8,222.4C273,222.4 275.5,221.4 276.4,219.9L276.5,219.9L276.5,221.8L281.7,221.8L281.7,205.2L276.5,205.2ZM272.3,217.9C269.5,217.9 267.8,215.6 267.8,213.4C267.8,211 269.8,208.9 272.3,208.9C274.8,208.9 276.7,210.9 276.7,213.4C276.8,215.6 275.1,217.9 272.3,217.9ZM232.7,205.2L232.7,228.4L237.9,228.4L237.9,219.9L238,219.9C238.9,221.4 241.4,222.4 243.6,222.4C248.3,222.4 252,218.5 252,213.5C252,208.4 248.4,204.6 243.7,204.6C239.7,204.6 237.9,207.4 237.9,207.4L237.9,205.2L232.7,205.2ZM237.6,213.5C237.6,211.1 239.6,209 242,209C244.5,209 246.5,211 246.5,213.5C246.5,215.6 244.8,218 242,218C239.2,217.9 237.6,215.6 237.6,213.5ZM303.4,211.5L303.4,221.8L298,221.8L298,213.3C298,210.6 297.4,208.7 294.9,208.7C292.4,208.7 291.1,210.7 291.1,214.3L291.1,221.8L286,221.8L286,205.2L291.2,205.2L291.2,207.4L291.3,207.4C292.6,205.5 294.7,204.6 297.2,204.6C301.3,204.6 303.4,206.9 303.4,211.5ZM336.5,209.3L336.5,205.2L332.4,205.2L332.4,201.3L327.2,201.3L327.2,205.2L324.6,205.2L324.6,209.3L327.2,209.3L327.2,215.8C327.2,220.2 329,222.4 333.4,222.4C334.4,222.4 335.5,222.3 337,222L336.6,218C335.8,218.2 334.7,218.3 334,218.2C333,218 332.4,217.4 332.4,215.9L332.4,209.4L336.5,209.4L336.5,209.3ZM259.8,198.6L259.8,221.8L254.6,221.8L254.6,198.6L259.8,198.6ZM323.4,214.9C323.9,209.4 321.2,204.6 314.4,204.6C308.5,204.6 305.6,208.9 305.6,213.5C305.6,218.6 309.3,222.3 315.5,222.3C318,222.3 319.8,221.6 321.5,221L320.5,217.2C319.1,217.7 318,218.2 315.7,218.2C313.1,218.2 311.5,216.7 311,214.7L323.4,214.7L323.4,214.9ZM314.9,208.4C317,208.4 318.5,210 318.7,211.8L311,211.8C311.4,209.5 313,208.4 314.9,208.4Z" style="fill-rule:nonzero;"/>
    </g>
</svg>
